X: 3
T:Fleur de Mandragore (\251Michel Bordeleau)
R:Reel
L:1/8
M:C|
K:A
$SmallLMargin
$SmallRMargin
% %text Notes in parentheses are "ghost notes" and should be played very lightly.
"A"EGAE GABA|Aced cA"<("">)"AA|"F#m/C#"EGAE GABB-| BABd cA"<("">)"AA|
"D"EGAE GABA|Aced cA"<("">)"AA|"E"EGAE GABB-|1BABd cAA2:|[2 BABc Aceg ||
|: "A"a4 a2 ga| "Bm"bAaA (3gag ec |"D"dfed cABc|"E"defg agfe|
"A"a4 a2 ga| "Bm"bAaA (3gag ec |"D"dfed "A"cABc|[1  "E"dcBc "A"Aceg:|[2 "E"dcBc "A"BA A2 ||
["final"  "E"dcBc "A"Aceg|"A"a4 a2||
% %text 09/09/09 

#include "RightHeader.h"
% ---------- set 89 ----------
% Paddy Killoran's (G) / La Maison de Glace (D) / The Old Woman Tossed Up in a Blanket (A)
% %footer 06/16/2007 For use only by Roaring Jelly members
$SmallLMargin
$SmallRMargin
% %text Set 89
% %vskip -1cm
% %scale .75
